!!!OTL: DIE DONAU IST INS WASSER GEFALLN
!!!ARE: Europa, Mitteleuropa, Deutschland, Hessen, Lahn - Gegend
!!!SCT: E1113
!!!YEM: Copyright 1995, estate of Helmut Schaffrath.
**kern
*ICvox
*Ivox
*M2/4
*k[f#]
*G:
{8d
=1
8d
8g
8g
8a
=2
8b
8b
8b}
{8b
=3
8a
8b
8cc
8b
=4
8a
8b
8cc}
{8b
=5
8a
8g
8f#
8g
=6
8a
8f#
8d}
{8d
=7
8g
8b
8dd
16cc
16dd
=8
4b
8r}
==
!!!AGN: Luegen - Lied, Maerchen
!!!ONB: ESAC (Essen Associative Code) Database: ERK3
!!!AMT: simple duple
!!!AIN: vox
!!!EED: Helmut Schaffrath
!!!EEV: 1.0
*-
